src/img/representacao_comercial.svg

<svg preserveAspectRatio="xMidYMid meet" data-bbox="0 0 200 200" xmlns="http://www.w3.org/2000/svg" viewBox="0 0 200 200" role="img">
    <g>
        <path d="M100 0C44.9 0 0 44.9 0 100s44.9 100 100 100 100-44.9 100-100S155.1 0 100 0zm70.2 158.3h-36c9.3-16.1 15.1-33.9 16.5-52.2H191c-1.3 19.8-8.8 37.8-20.8 52.2zM27.1 45.2h34.2C54 59.3 49.7 75.1 49 91.8c-.1 1.9-.1 3.7-.1 5.6H8.8c.6-19.5 7.3-37.5 18.3-52.2zM100 13.8c9 6.4 16.8 14 23.1 22.7H76.9C83.2 27.9 91 20.2 100 13.8zm28.7 31.4c8.1 14 12.8 30 13.6 46.9.1 1.7.1 3.5.1 5.2H57.6c0-1.7 0-3.5.1-5.2.7-17 5.5-33 13.6-46.9h57.4zM100 185.8c-6.7-5.7-12.8-12-18-18.8h36c-5.2 6.8-11.3 13.1-18 18.8zm-24.1-27.5c-10.1-15.9-16.4-33.8-17.9-52.2h84c-1.6 18.4-7.8 36.3-17.9 52.2H75.9zm-26.7-52.2c1.4 18.3 7.2 36.1 16.5 52.2h-36C17.8 143.9 10.3 125.9 9 106.1h40.2zm22 60.9c6 8.7 13.2 16.8 21.4 24-21-1.7-39.9-10.5-54.5-24h33.1zm57.6 0h33.1c-14.6 13.5-33.5 22.3-54.5 24 8.2-7.3 15.3-15.3 21.4-24zm22.3-69.6c0-1.9 0-3.7-.1-5.6-.7-16.7-5-32.5-12.4-46.6h33c.4 0 .7-.1 1-.2 11.1 14.7 17.9 32.7 18.4 52.4h-39.9zm14.4-60.9h-31.8c-6.7-10.4-15.2-19.7-25.4-27.4 22.4 2 42.4 12.2 57.2 27.4zM91.7 9.1c-10.1 7.7-18.7 17-25.4 27.4H34.5C49.3 21.3 69.3 11.1 91.7 9.1z"></path>
    </g>
</svg>

<?xml version="1.0" encoding="utf-8"?>
<!-- Generator: Adobe Illustrator 23.0.3, SVG Export Plug-In . SVG Version: 6.00 Build 0)  -->
<svg version="1.1" id="Camada_1" xmlns="http://www.w3.org/2000/svg" xmlns:xlink="http://www.w3.org/1999/xlink" x="0px" y="0px"
	 viewBox="0 0 200 200" style="enable-background:new 0 0 200 200;" xml:space="preserve">
<style type="text/css">
	.st0{fill:#FFFFFF;}
</style>
<g>
	<path class="st0" d="M100,0C44.9,0,0,44.9,0,100s44.9,100,100,100s100-44.9,100-100S155.1,0,100,0z M170.2,158.3h-36
		c9.3-16.1,15.1-33.9,16.5-52.2H191C189.7,125.9,182.2,143.9,170.2,158.3z M27.1,45.2h34.2C54,59.3,49.7,75.1,49,91.8
		c-0.1,1.9-0.1,3.7-0.1,5.6H8.8C9.4,77.9,16.1,59.9,27.1,45.2z M100,13.8c9,6.4,16.8,14,23.1,22.7H76.9C83.2,27.9,91,20.2,100,13.8z
		 M128.7,45.2c8.1,14,12.8,30,13.6,46.9c0.1,1.7,0.1,3.5,0.1,5.2H57.6c0-1.7,0-3.5,0.1-5.2c0.7-17,5.5-33,13.6-46.9
		C71.3,45.2,128.7,45.2,128.7,45.2z M100,185.8c-6.7-5.7-12.8-12-18-18.8h36C112.8,173.8,106.7,180.1,100,185.8z M75.9,158.3
		c-10.1-15.9-16.4-33.8-17.9-52.2h84c-1.6,18.4-7.8,36.3-17.9,52.2H75.9z M49.2,106.1c1.4,18.3,7.2,36.1,16.5,52.2h-36
		C17.8,143.9,10.3,125.9,9,106.1C9,106.1,49.2,106.1,49.2,106.1z M71.2,167c6,8.7,13.2,16.8,21.4,24c-21-1.7-39.9-10.5-54.5-24H71.2
		z M128.8,167h33.1c-14.6,13.5-33.5,22.3-54.5,24C115.6,183.7,122.7,175.7,128.8,167z M151.1,97.4c0-1.9,0-3.7-0.1-5.6
		c-0.7-16.7-5-32.5-12.4-46.6h33c0.4,0,0.7-0.1,1-0.2c11.1,14.7,17.9,32.7,18.4,52.4L151.1,97.4L151.1,97.4z M165.5,36.5h-31.8
		c-6.7-10.4-15.2-19.7-25.4-27.4C130.7,11.1,150.7,21.3,165.5,36.5z M91.7,9.1c-10.1,7.7-18.7,17-25.4,27.4H34.5
		C49.3,21.3,69.3,11.1,91.7,9.1z"/>
</g>
</svg>
